X:1
T:Jazzapation
T:JAZZAPATION
T:FOX TROT
T:By EDWARD B. CLAYPOOLE
T:Copyright 1920 by JEROME H. REMICK &amp; CO.
T:Copyright 1920 by JEROME H. REMICK &amp; CO.
C:Edward B. Claypoole
Z:Copyright 1920 by JEROME H. REMICK & CO.
%%score { ( 1 3 ) | 2 }
L:1/8
Q:1/4=180
M:4/4
K:C
V:1 treble nm="Piano" snm="Pno."
V:3 treble 
V:2 bass 
V:1
"^Not Fast"!f!"_PIANO" (3G/A/B/ | .c.e.B.d .c.G.E.C | !>!_E !>!D2 !>!C- C2 z (3B/c/d/ | %3
 ._e.d.c.B .c.d.e=f | .[Bdg] z z2 !>![GBdg] z z (3g/a/b/ |:!mf! .c'.e'.b.d' .c'.g.e.c | %6
 !>![^Fc_e] !>![Fcd]2 !>![Fc]- [Fc]!>![^fc'd']!>![fc'd']!>![fc'd'] | %7
 z [Gg][Aa][Bb] [cec'][Bb][Aa][Gg] | [^Fce] [Fc_e]2 [=FBd]- [FBd]{/^f}!>!g{/f}!>!g{/f}!>!g | %9
 z .[=ee'].b.d' .c'.g.e.c | !>![^Fc_e] !>![Fcd]2 !>![Fc]- [Fc]!>![^fc'd']!>![fc'd']!>![fc'd'] | %11
 z [Gg][Aa][Bb] [cc'][Gg][Aa][Bb] ||1 [c^fc'] [d=fd']2 [cec']- [cec'] z z (3g/a/b/ :|2 %13
 [c^fc'] [d=fd']2 [cec']- [cec']!f![ee'][^d^d'][ee'] || [ff'][ee'][dd'][Bb]- [Bb]4- | %15
 [Bb]{/^d'}!>![ee']{/d'}!>![ee']{/d'}!>![ee']- [ee'][d=d'][cc'][Bb] | %16
 [cc'] [Bb]2 [Acea]- [Acea]{/^g}!>!a{/g}!>!a{/g}!>!a- | agec dcAG | %18
!mf! z [cc'][Aa]!>![cc']- [cc'][Aa] !>![cc']2 | [Aa] !>![cc']2 [Aa] !>![cc']2 [Aa]!>![cc']- | %20
 [cc'][Aa] !>![cc']2 [Aa] !>![cc']2 [Aa] | %21
 [cc']!f!!>![c'c'']!>![c'c'']!>![c'c'']- [c'c'']!>![bb']!>![aa']!>![gg'] | %22
 [ff'][ee'][dd'][Bb]- [Bb]4- | [Bb]{/^d'}!>![ee']{/d'}!>![ee']{/d'}!>![ee']- [ee'][d=d'][cc'][Bb] | %24
 [cc'] [Bb]2 [Acea]- [Acea]{/^g}!>!a{/g}!>!a{/g}!>!a- | agec dcAG | %26
!mf!!mf! z [cc'][Aa]!>![cc']- [cc'][Aa] !>![cc']2 | [Aa] !>![cc']2 [Aa] !>![cc']2 [Aa]!>![cc']- | %28
 [cc']!f!!>![c'c'']!>![c'c'']!>![c'c'']- [c'c'']g!>![d_ea]g | %29
 [c=ec']G!>![D_EA]G [C=Ec] z z (3g/a/b/ ||!mf! .c'.e'.b.d' .c'.g.e.c | %31
 !>![Fc^d] !>![Fc=d]2 !>![Fc]- [Fc]!>![^fc'd']!>![fc'd']!>![fc'd'] | %32
 z [Gg][Aa][Bb] [cec'][Bb][Aa][Gg] | [^Fc=e] [Fc_e]2 [=FBd]- [FBd]{/^f}g{/f}g{/f}g | %34
 z .[ee'].b.d' .c'.g.e.c | [^Fc_e] [Fcd]2 [Fc]- [Fc][^fc'd'][fc'd'][fc'd'] | %36
 z [Gg][Aa][Bb] [cc'][Gg][Aa][Bb] | [c^fc'] [d=fd']2 [cec']- [cec']2 z2 || %38
[K:Ab]S!mf! !>![cec'] !>![Beb]2 !>![Aca]- [Aca]!>!a!>!a{/g'}!>![aa']- | %39
 [aa'][ff'][ee'][cc'] !>![Aa] !>![Gg]2 !>![_G_g]- | %40
 [Gg]!>!a!>!a{/g'}!>![aa']- [aa'][ff'][ee'][cc'] | %41
 !>![Aa] !>![=G=g]2 !>![_G_g]- [Gg][cc'][Bb][Aa] |!p! [Ff][Aa][Bb][Ff] [Aa][Bb][Ff][Aa] | %43
!<(! [Bb][Aa][Bb][_c_c']- [cc'][Bb][Aa][Ff]!<)! | %44
 [Aa]!>![aa']!>![aa']!>![aa']- [aa'][ff'][ee'][cc'] | %45
 [Aa]2!<(! !>![Ece]2 !>![Fcf]2 !>![^Fc^f]2!<)! |!p! G [G_d=f]2 [Gde]- [Gde]f[^Fce]=f | %47
 G [Gdf]2 [Gde]- [Gde]f[G=Be]f | [Aa]!>![aa']!>![aa']!>![aa']- [aa'][ff'][ee'][cc'] | %49
 [Aa]2!<(! !>![Ece]2 !>![Fcf]2 !>![^Fc^f]2!<)! |!p! G [Gdf]2 [Gde]- [Gde]f[^Fce]f | %51
 G [Gdf]2 [Gde]- [Gde]f[Gde]f |!f! ^G !>![^g^g']2 !>![gg']2 !>![gg']2 !>![gg']- | %53
 [gg'][=e=e'][=d=d'][=B=b] [^G^g][=A=a][_B_b][=B=b] | %54
!mf! !>![c_ec'] !>![_Be_b]2 !>![Aca]- [Aca]!>!a!>!a{/g'}!>![aa']- | %55
 [aa'][ff'][ee'][cc'] !>![Aa] !>![Gg]2 !>![_G_g]- | %56
 [Gg]!>!a!>!a{/g'}!>![aa']- [aa'][ff'][ee'][cc'] | %57
 !>![Aa] !>![=G=g]2 !>![_G_g]- [Gg][cc'][Bb][Aa] |!p! [Ff][Aa][Bb][Ff] [Aa][Bb][Ff][Aa] | %59
!<(! [Bb][Aa][Bb][_c_c']- [cc'][Bb][Aa][Ff]!<)! | [A=cea] z z2 z4 | %61
!ff!"_Fine" z EFE !>![CA] z z2!fine! ||!ff! z [cac'][cac'][cac'] [cac'][cac'][cac'][cac'] | %63
 [cac'] [ff']2 [cc']- [cc'][Bb][Aa][Bb] | %64
 !>![_cf_c'] !>![Bfb]2 !>![Afa]- [Afa]!>![Aa]!>![Bb]!>![=B=b] | !>![c=ec'] z z2 z4 | %66
 z [_e_c'_e'][ec'e'][ec'e'] [ec'e'][ec'e'][ec'e'][ec'e'] | %67
 [e_c'e'] [aa']2 [ee']- [ee'][_d_d'][_c_c'][dd'] | %68
 !>![__ea__e'] !>![dad']2 !>![_ca_c']- [cac']!>![cc']!>![dd']!>![=d=d'] | %69
 !>![ege'] z z2 z4!D.S.! |] %70
V:2
 (3G,/A,/B,/ | .C.E.B,.D .C.G,.E,.C, | !>!_E, !>!D,2 !>!C,- C,2 z2 | %3
 !>![_A,C^F] z !>![A,CF] z !>![A,CF] z !>![A,CF] z | !>![G,B,DG] z z2 !>![G,,G,] z z2 |: %5
 C,2 [G,CE]2 G,,2 [G,CE]2 | !>![_A,,_E,_A,] !>![A,,E,A,]2 !>![A,,E,A,]- [A,,E,A,] z z2 | %7
 [G,,G,]2 [G,CE]2 [A,,A,]2 [E,A,C]2 | [D,,D,]2 [^F,A,D]2 [G,,G,]2 [G,B,D=F]2 | %9
 C,2 [G,CE]2 G,,2 [G,CE]2 | !>![_A,,_E,_A,] !>![A,,E,A,]2 !>![A,,E,A,]- [A,,E,A,] z z2 | %11
 [G,,G,]2 [G,CE]2 [A,,A,]2 [E,A,C]2 ||1 [D,,D,]2 [G,,,G,,]2 [C,,C,] z z2 :|2 %13
 [D,,D,]2 [G,,,G,,]2 [C,,C,] z z2 || [B,,B,]2 [E,^G,D]2 [E,,E,][F,F][E,E][D,D] | %15
 B,2 [E,^G,D]2 [E,,E,]2 [E,G,D]2 | [A,,A,]2 [E,A,C]2 [E,,E,]2 [E,A,C]2 | %17
 [A,,A,]2 [E,A,C]2 !>![A,,A,]2 !>![G,,G,]2 | !arpeggio![D,,A,,^F,]2 [D,F,C]2 [A,,,A,,]2 [D,F,C]2 | %19
 [D,,D,]2 [D,^F,C]2 [G,,,G,,]2 [G,B,F]2 | [C,,C,]2 [G,CE]2 [G,,,G,,]2 [G,CE]2 | %21
 [C,,C,]2 [C,C]2 [B,,B,]2 [A,,A,]2 | [B,,B,]2 [E,^G,D]2 [E,,E,][F,F][E,E][D,D] | %23
 B,2 [E,^G,D]2 [E,,E,]2 [E,G,D]2 | [A,,A,]2 [E,A,C]2 [E,,E,]2 [E,A,C]2 | %25
 [A,,A,]2 [E,A,C]2 !>![A,,A,]2 !>![G,,G,]2 | !arpeggio![D,,A,,^F,]2 [D,F,C]2 [A,,,A,,]2 [D,F,C]2 | %27
 [D,,D,]2 [D,^F,C]2 [G,,,G,,]2 [G,B,=F]2 | [C,,C,]2 !>![G,,G,]2 !>![A,,A,]2 !>![B,,B,]2 | %29
 !>![C,C]2 !>![G,,G,]2 [C,,C,] z z2 || C,2 [G,CE]2 G,,2 [G,CE]2 | %31
 !>![_A,,_E,_A,] !>![A,,E,A,]2 !>![A,,E,A,]- [A,,E,A,] z z2 | [G,,G,]2 [G,CE]2 [A,,A,]2 [E,A,C]2 | %33
 [D,,D,]2 [^F,A,D]2 [G,,G,]2 [G,B,DF]2 | C,2 [G,CE]2 G,,2 [G,CE]2 | %35
 !>![_A,,_E,_A,] !>![A,,E,A,]2 !>![A,,E,A,]- [A,,E,A,] z z2 | [G,,G,]2 [G,CE]2 [A,,A,]2 [E,A,C]2 | %37
 [D,,D,]2 [G,,,G,,]2 [C,,C,]2 z2 ||[K:Ab] [A,,A,]2 [E,A,C]2 [E,,E,]2 [E,A,C]2 | %39
 [A,,A,]2 [E,A,C]2 !>![A,,A,]2 !>![B,,B,]2 | [C,C]2 [A,C_G]2 [E,,E,]2 [A,CG]2 | %41
 [A,,A,]2 [E,A,C]2 [A,,A,]2 [A,C_G]2 | [D,,D,]2 [A,DF]2 [A,,,A,,]2 [F,A,D]2 | %43
 [D,,D,]2 [F,A,D]2 [D,,D,]2 [D,F,_C]2 | [A,,A,]2 [E,A,=C]2 [E,,E,]2 [E,A,C]2 | %45
 [A,,A,]2 [E,A,C]2 !>![A,,A,]2 !>![=A,,=A,]2 | !>![B,,B,]2 [E,G,D]2 [E,,E,]2 !>![=A,,=A,]2 | %47
 !>![B,,B,]2 [E,G,D]2 [E,,E,]2 !>![=A,,=A,]2 | [A,,A,]2 [E,A,C]2 [E,,E,]2 [E,A,C]2 | %49
 [A,,A,]2 [E,A,C]2 !>![A,,A,]2 !>![=A,,=A,]2 | [B,,B,]2 [E,G,D]2 [E,,E,]2 [=A,,=A,]2 | %51
 [B,,B,]2 [E,G,D]2 [E,,E,]2 [E,G,D]2 | [=B,,,=B,,]2 [=E,^G,=D]2 [=E,,E,]2 [E,A,D]2 | %53
 [=B,,=B,]2 [=E,^G,=D]2 [=E,,E,]2 [E,G,D]2 | [_A,,_A,]2 [_E,A,C]2 [E,,E,]2 [E,A,C]2 | %55
 [A,,A,]2 [E,A,C]2 !>![A,,A,]2 !>![B,,B,]2 | !>![C,C]2 [A,C_G]2 [E,,E,]2 [A,CG]2 | %57
 [A,,A,]2 [E,A,C]2 [A,,A,]2 [A,C_G]2 | [D,,D,]2 [A,DF]2 [A,,,A,,]2 [F,A,D]2 | %59
 [D,,D,]2 [F,A,D]2 [D,,D,]2 [D,F,_C]2 | !arpeggio![A,,E,=C] z z2 z4 | %61
 z2 !>![G,,=D,] z !>![A,,E,] z z2 || !>![F,,F,]2 !>![F,F]2 !>![C,C]2 !>![A,,A,]2 | %63
 !>![F,,F,]2 [A,CF]2 [C,,C,]2 [A,CF]2 |[K:treble] !>![_DF] !>![DF]2 !>![DF]- [DF] z !>![DF] z | %65
 [C=E] z z2 z4 |[K:bass] [A,,A,]2 !>![A,A]2 !>![E,E]2 !>![=B,,=B,]2 | %67
 !>![A,,A,]2 [E,A,=B,]2 [E,,E,]2 [E,A,B,]2 | %68
[K:treble] !>![_FA] !>![FA]2 !>![FA]- [FA] z !>![FA] z | !>![EG] z z2[K:bass] !>![E,,E,] z z2 |] %70
V:3
 x | x8 | x8 | x8 | x8 |: x8 | x8 | x8 | x8 | x8 | x8 | x8 ||1 x8 :|2 x8 || x8 | x8 | x8 | x8 | %18
 x4 [^fa] x2 [fa] | x2 [^fa] x2 [=fa] x2 | [eg] x2 [eg] x2 [eg] x | x8 | x8 | x8 | x8 | x8 | %26
 x4 [^fa] x2 [fa] | x2 [^fa] x2 [=fa] x2 | [eg] x7 | x8 || x8 | x8 | x8 | x8 | x8 | x8 | x8 | x8 || %38
[K:Ab] x8 | x8 | x8 | x8 | x8 | x8 | A8- | x8 | x8 | x8 | A8- | x8 | x8 | x8 | !>!^G8 | x8 | x8 | %55
 x8 | x8 | x8 | x8 | x8 | x8 | x2 !>!=B, z x4 || x8 | x8 | x8 | x8 | x8 | x8 | x8 | x8 |] %70

